X: 42
M:3/4
L:1/8
K:G
"Andantino"D>E|G>A G>A Bd|e>f e>d B>e|dB/2A/2 G>A BA|AG E2 D>E|
dB/2A/2 G>A BA|AG E2 D>E|G>A GA Bd|e3/2f/2e/2d/2 B3 e|
dB/2A/2 GA BA|AG G2||

